X:1
T:60 National Airs of Different Nations
T:Nº. 33. Scots Wha Hae Wi' Wallace Bled.
T:60 National Airs of Different Nations
T:Felix Horetzky (1796-1870)
T:Sheet music from www.MutopiaProject.org - Pubblico dominio
C:Felix Horetzky
C:(1796-1870)
Z:Sheet music from www.MutopiaProject.org - Pubblico dominio
%%score ( 1 2 )
L:1/8
Q:1/4=60
M:2/4
K:D
V:1 treble-8 nm="N°.33      \nMAESTOSO"
V:2 treble-8 
V:1
 A>A A>F | AB d2 | B>B B>A | Bcde |!f! f>f [ce][cf] | d>e !fermata!fe | [Bd]<B BA | A4 :: %8
!f! f>f [df]>[Ae] | [df][eg] [fa]2 |!p! [ce]>[ce] [ce][Bd] | [ce]>[df] [eg]2 | %12
!f! [fa]>[df] [ce][cf] |!f! de !fermata!f>e |!p! [Bd]<B BA | A4 :| A>A A>F | AB d2 | B>B B>A | %19
 Bcde |!f! f>f [ce][cf] | d>e !fermata!fe | d<B BA | A4 || %24
V:2
 [DF]2 [DF]2 | [DF]2 [DFA]2 | [DG]2 [DG]2 | [DG][DG][DF][CA] | [DAd]2 A,^A, | [B,B]2 [FA] z | %6
 G<G GF | [DF]4 :: [Dd]2 D2 | D2 D2 | A,2 A,2 | A,2 A,2 | D2 A,^A, | [CB]2 [F^A]2 | G<G GF | %15
 [DF]4 :| [DF]2 [DF]2 | [DF]2 [DFA]2 | [DG]2 [DG]2 | [DG][DG] [DF][CA] | [DAd]2 A,^A, | %21
 [B,B]2 [FA] z | G<G GF | [DF]4 || %24

